X: 882
T: Gönül Sana Tapalı
C: Sadettin Kaynak
O: Turkey
F: http://compmusic.upf.edu/node/140
N: acemasiran--sarki--sofyan--gonul_sana--sadettin_kaynak
N: makam= acemasiran
N: form= sarki
N: usul= sofyan = 4/4
M: 4/4
L: 1/16
K: C _B   
Q: 1/4=116
%%MIDI tuningsystem comma53
z2c2 d2e2 f4 edc2  | z2c2 d2e2 f4 fed2  | \
w:   |   | 
z2c2 d2e2 f2g2 a2f2  | 
w:   | 
a8 a2g2 a2b2  | bag6 g2f2 g2a2  | agf6 f2e2 f2g2  | \
w:   |   |   | 
gfe6 e2d2 e2f2  | 
w:   | 
fed4c2 B2A2 d4  | d2c4B2 A2G2 c4  | c2B4A2 G4 A2B2  | \
w:   |   |   | 
A4 G2F2 G4 F2E2  | 
w:   | 
F6C2 D2E2 F4  | z2c2 d2e2 f4 edc2  | \
w:   |   | 
z2c2 d2e2 f4 fed2  | 
w:   | 
z2c2 d2e2 f2g2 a2f2  | a8 a2g2 a2b2  | \
w:   |   | 
bag6 g2f2 g2a2  | agf6 f2e2 f2g2  | 
w:   |   | 
gfe6 e2d2 e2f2  | fed4c2 B2A2 d4  | d2c4B2 A2G2 c4  | \
w:   |   |   | 
c2B4A2 G4 A2B2  | 
w:   | 
A4 G2F2 G4 F2E2  | F6C2 D2E2 F4  | z4 f4 f4 f2e2  | \
w:   |   |  Gö nül  sa  | 
e6d2 (3d2c2d2 (3e2d2c2  | 
w:  na  *  ta *  *  pa  | 
c4 d2B2 c2A2 B2G2  | A4 GFEG F8  | z4 a4 a4 a2g2  | \
w:  lı   SAZ  |   |  Ka pın  ba  | 
{a}g4 f2e2 f2g2 a3g  | 
w:  *  na  *  *  ka *  pa  | 
f4 c'2a2 b2g2 a2f2  | g4 fedc f8  | z4 f4 f4 f2e2  | \
w:  lı   SAZ  |   |  Gö nül  sa  | 
e6d2 (3d2c2d2 (3e2d2c2  | 
w:  na  *  ta *  *  pa  | 
c4 d2B2 c2A2 B2G2  | A4 GFEG F8  | z4 a4 a4 a2g2  | \
w:  lı   SAZ  |   |  Ka pın  ba  | 
{a}g4 f2e2 f2g2 a3g  | 
w:  *  na  *  *  ka *  pa  | 
f4 c'2a2 b2g2 a2f2  | g4 fedc f8  | z4 f4 f4 f2e2  | \
w:  lı   SAZ  |   |  Şa şır mı  | 
e6d2 d4 {e}d2c2  | 
w:  şım  *  yo *  lu  | 
(3c2B2c2 (3d2c2B2 (3B2A2B2 (3c2B2A2  | \
w:  mu    | 
(3A2G2A2 (3B2A2G2 F4 B4  | z4 B4 A4 G4  | 
w:   |  Bu  sev gi  | 
F6E2 F2G2 A3G  | F4 c'2a2 b2g2 a2f2  | \
w:  ye  *  sa *  pa  |  lı   SAZ  | 
g4 fedc f8  | z4 f4 f4 f2e2  | 
w:   |  Şa şır mı  | 
e6d2 d4 {e}d2c2  | (3c2B2c2 (3d2c2B2 (3B2A2B2 (3c2B2A2  | \
w:  şım  *  yo *  lu  |  mu    | 
(3A2G2A2 (3B2A2G2 F4 B4  | 
w:   | 
z4 B4 A4 G4  | F6E2 F2G2 A3G  | F12 c2_7/8d2  | \
w:  Bu  sev gi  |  ye  *  sa *  pa  |  lı   SAZ  | 
c2_1/4B2 A2G2 c8  | z4 c4 c4 c2_7/8d2  | 
w:   |  Su sa yan_  | 
c2_1/4B2 A2G2 A4 B4  | c4 g2e2 f2_7/8d2 e2c2  | \
w:  ır *  *  *  mak_ a  |  rar   SAZ  | 
_7/8d4 c_1/4BAG c8  | z4 c4 _7/8d4 e4  | 
w:   |  Ol maz  se  | 
f8 e2_7/8d2 c4  | g4 f2e2 f4 e2_7/8d2  | \
w:  ven de  *  ka  |  rar    | 
e4 _7/8d2c2 d4 c2_1/4B2  | c4 c4 c4 c2_7/8d2  | 
w:   |  *  Su sa yan_  | 
c2_1/4B2 A2G2 A4 B4  | c12 c2_7/8d2  | \
w:  ır *  *  mak_ *  a  |  rar   SAZ  | 
c2_1/4B2 A2G2 c8  | z4 c4 _7/8d4 e4  | \
w:   |  Ol maz  se  | 
f6g2 a2g2 f2e2  | 
w:  ven *  de  *  ka  | 
f4 c'2a2 b2g2 a2f2  | g4 fedc f8  | z4 f4 f4 f2e2  | \
w:  rar   SAZ  |   |  Gü zel le  | 
e6d2 d4 d2c2  | 
w:  ri  *  ol maz  | 
(3c2B2c2 (3d2c2B2 (3B2A2B2 (3c2B2A2  | \
w:  sa    | 
(3A2G2A2 (3B2A2G2 F4 B4  | z4 B4 A4 G4  | 
w:   |  Bu  dün ya   | 
F6E2 F2G2 A3G  | F4 c'2a2 b2g2 a2f2  | \
w:  ne *  ye  *  ya  |  rar   SAZ  | 
g4 fedc f8  | z4 f4 f4 f2e2  | 
w:   |  Gü zel le  | 
e6d2 d4 d2c2  | (3c2B2c2 (3d2c2B2 (3B2A2B2 (3c2B2A2  | \
w:  ri  *  ol maz  |  sa    | 
(3A2G2A2 (3B2A2G2 F4 B4  | 
w:   | 
z4 B4 A4 G4  | F6E2 F2G2 A3G  | F12 C4  | \
w:  Bu  dün ya   |  ne *  ye  *  ya  |  rar   SAZ  | 
D4 E4 F8  | z2c2 d2e2 f4 edc2  | 
w:   |   | 
z2c2 d2e2 f4 fed2  | z2c2 d2e2 f2g2 a2f2  | \
w:   |   | 
a8 a2g2 a2b2  | 
w:   | 
bag6 g2f2 g2a2  | agf6 f2e2 f2g2  | gfe6 e2d2 e2f2  | 
w:   |   |   | 
fed4c2 B2A2 d4  | d2c4B2 A2G2 c4  | c2B4A2 G4 A2B2  | \
w:   |   |   | 
A4 G2F2 G4 F2E2  | 
w:   | 
F6C2 D2E2 F4  | z2c2 d2e2 f4 edc2  | \
w:   |   | 
z2c2 d2e2 f4 fed2  | 
w:   | 
z2c2 d2e2 f2g2 a2f2  | a8 a2g2 a2b2  | \
w:   |   | 
bag6 g2f2 g2a2  | agf6 f2e2 f2g2  | 
w:   |   | 
gfe6 e2d2 e2f2  | fed4c2 B2A2 d4  | d2c4B2 A2G2 c4  | \
w:   |   |   | 
c2B4A2 G4 A2B2  | 
w:   | 
A4 G2F2 G4 F2E2  | F6C2 D2E2 F4  | z4 f4 f4 f2e2  | \
w:   |   |  Gö nül  sa  | 
e6d2 (3d2c2d2 (3e2d2c2  | 
w:  na  *  ta *  *  pa  | 
c4 d2B2 c2A2 B2G2  | A4 GFEG F8  | z4 a4 a4 a2g2  | \
w:  lı   SAZ  |   |  Ka pın  ba  | 
{a}g4 f2e2 f2g2 a3g  | 
w:  *  na  *  *  ka *  pa  | 
f4 c'2a2 b2g2 a2f2  | g4 fedc f8  | z4 f4 f4 f2e2  | \
w:  lı   SAZ  |   |  Gö nül  sa  | 
e6d2 (3d2c2d2 (3e2d2c2  | 
w:  na  *  ta *  *  pa  | 
c4 d2B2 c2A2 B2G2  | A4 GFEG F8  | z4 a4 a4 a2g2  | \
w:  lı   SAZ  |   |  Ka pın  ba  | 
{a}g4 f2e2 f2g2 a3g  | 
w:  *  na  *  *  ka *  pa  | 
f4 c'2a2 b2g2 a2f2  | g4 fedc f8  | z4 f4 f4 f2e2  | \
w:  lı   SAZ  |   |  Şa şır mı  | 
e6d2 d4 {e}d2c2  | 
w:  şım  *  yo *  lu  | 
(3c2B2c2 (3d2c2B2 (3B2A2B2 (3c2B2A2  | \
w:  mu    | 
(3A2G2A2 (3B2A2G2 F4 B4  | z4 B4 A4 G4  | 
w:   |  Bu  sev gi  | 
F6E2 F2G2 A3G  | F4 c'2a2 b2g2 a2f2  | \
w:  ye  *  sa *  pa  |  lı   SAZ  | 
g4 fedc f8  | z4 f4 f4 f2e2  | 
w:   |  Şa şır mı  | 
e6d2 d4 {e}d2c2  | (3c2B2c2 (3d2c2B2 (3B2A2B2 (3c2B2A2  | \
w:  şım  *  yo *  lu  |  mu    | 
(3A2G2A2 (3B2A2G2 F4 B4  | 
w:   | 
z4 B4 A4 G4  | F6E2 F2G2 A3G  | F12 c2_7/8d2  | \
w:  Bu  sev gi  |  ye  *  sa *  pa  |  lı   SAZ  | 
c2_1/4B2 A2G2 c8  | z4 c4 c4 c2_7/8d2  | 
w:   |  Su sa yan_  | 
c2_1/4B2 A2G2 A4 B4  | c4 g2e2 f2_7/8d2 e2c2  | \
w:  ır *  *  *  mak_ a  |  rar   SAZ  | 
_7/8d4 c_1/4BAG c8  | z4 c4 _7/8d4 e4  | 
w:   |  Ol maz  se  | 
f8 e2_7/8d2 c4  | g4 f2e2 f4 e2_7/8d2  | \
w:  ven de  *  ka  |  rar    | 
e4 _7/8d2c2 d4 c2_1/4B2  | c4 c4 c4 c2_7/8d2  | 
w:   |  *  Su sa yan_  | 
c2_1/4B2 A2G2 A4 B4  | c12 c2_7/8d2  | \
w:  ır *  *  mak_ *  a  |  rar   SAZ  | 
c2_1/4B2 A2G2 c8  | z4 c4 _7/8d4 e4  | \
w:   |  Ol maz  se  | 
f6g2 a2g2 f2e2  | 
w:  ven *  de  *  ka  | 
f4 c'2a2 b2g2 a2f2  | g4 fedc f8  | z4 f4 f4 f2e2  | \
w:  rar   SAZ  |   |  Gü zel le  | 
e6d2 d4 d2c2  | 
w:  ri  *  ol maz  | 
(3c2B2c2 (3d2c2B2 (3B2A2B2 (3c2B2A2  | \
w:  sa    | 
(3A2G2A2 (3B2A2G2 F4 B4  | z4 B4 A4 G4  | 
w:   |  Bu  dün ya   | 
F6E2 F2G2 A3G  | F4 c'2a2 b2g2 a2f2  | \
w:  ne *  ye  *  ya  |  rar   SAZ  | 
g4 fedc f8  | z4 f4 f4 f2e2  | 
w:   |  Gü zel le  | 
e6d2 d4 d2c2  | (3c2B2c2 (3d2c2B2 (3B2A2B2 (3c2B2A2  | \
w:  ri  *  ol maz  |  sa    | 
(3A2G2A2 (3B2A2G2 F4 B4  | 
w:   | 
z4 B4 A4 G4  | F6E2 F2G2 A3G  | F12 C4  | \
w:  Bu  dün ya   |  ne *  ye  *  ya  |  rar   SAZ  | 
D4 E4 F8  | |


